X: 1
T:Minuet
C:Joseph Haydn
R:Minuet
Z:Transcribed by Frank Nordberg - http://www.musicaviva.com
V:1 Program 1 0
V:2 Program 1 0 bass
M:3/4
L:1/4
Q:120
K:G
V:1
"_f"(D|G)GG|G(D/G/B/G/|A)AA|A(D/A/c/A/|
V:2
z|(G,,G,A,|B,G,)z|(D,,D,E,|F,D,)z|
V:1
B)dd|(d/g/f/e/d)|([Bd][Ac])[GB]|([GB][FA])::"_mp"(D|
V:2
(G,,G,A,|B,)zz|(G,C,)^C,|D,D,,::z|
V:1
d)dd|d(E/^G/B/d/|c)cc|c(D/F/A/c/|
V:2
z(B,A,|^G,)zz|z(A,=G,|F,)zz|
V:1
"_cresc."B)dd|(d/g/f/e/d)|((3e/d/c/B)A|"_f"G2:|]
V:2
(G,,G,A,|B,)zG,|C,D,D,,|G,,2:|]
